static/icons/shako.svg

<svg height="50" viewBox="0 0 13.229166 13.229167" width="50" xmlns="http://www.w3.org/2000/svg"><path d="m13.412109 4.0605469-8.1953121 7.6542971c.5706699.624617 8.2646991 9.413376 14.0410151 16.007812a9.3535995 9.3535995 0 0 0 -6.578124 8.931641 9.3535995 9.3535995 0 0 0 9.353515 9.353515 9.3535995 9.3535995 0 0 0 8.882813-6.457031c2.96417 1.356548 4.85393 3.876551 7.726562 6.283203l5.171875.015625c.682813.001512.591599-2.261328-.291015-2.529297-.897344-.272466-2.093622-.688367-3.69336-.947265-1.711275-1.858911-.345378-.370183-2.398437-2.541016 4.725918-2.044187 6.709741-9.067222.445312-14.798828zm.054688 1.2636719 25.332031 22.7246092c1.291083 1.858507 1.065896 1.906684 1.25586 3.001953l-27.75-24.6874998zm8.566406 25.0234372a6.3072108 6.3072108 0 0 1 6.308594 6.306641 6.3072108 6.3072108 0 0 1 -6.308594 6.306641 6.3072108 6.3072108 0 0 1 -6.306641-6.306641 6.3072108 6.3072108 0 0 1 6.306641-6.306641z" fill="#8a0" transform="scale(.26458333)"/></svg>

<?xml version="1.0" encoding="UTF-8" standalone="no"?>
<!-- Created with Inkscape (http://www.inkscape.org/) -->

<svg
   xmlns:dc="http://purl.org/dc/elements/1.1/"
   xmlns:cc="http://creativecommons.org/ns#"
   xmlns:rdf="http://www.w3.org/1999/02/22-rdf-syntax-ns#"
   xmlns:svg="http://www.w3.org/2000/svg"
   xmlns="http://www.w3.org/2000/svg"
   xmlns:sodipodi="http://sodipodi.sourceforge.net/DTD/sodipodi-0.dtd"
   xmlns:inkscape="http://www.inkscape.org/namespaces/inkscape"
   width="50"
   height="50"
   viewBox="0 0 13.229166 13.229167"
   version="1.1"
   id="svg1579"
   sodipodi:docname="Shako.svg"
   inkscape:version="0.92.4 (5da689c313, 2019-01-14)">
  <defs
     id="defs1573">
    <inkscape:path-effect
       effect="mirror_symmetry"
       start_point="-15.691712,-45.362002"
       end_point="-15.691712,4.437998"
       center_point="-15.691712,-20.462002"
       id="path-effect7365"
       is_visible="true"
       mode="free"
       discard_orig_path="false"
       fuse_paths="true"
       oposite_fuse="false" />
    <inkscape:path-effect
       effect="mirror_symmetry"
       start_point="275.14301,98.12006"
       end_point="275.14301,350.07326"
       center_point="275.14301,224.09666"
       id="path-effect4547-0"
       is_visible="true"
       mode="free"
       discard_orig_path="false"
       fuse_paths="true"
       oposite_fuse="false" />
    <inkscape:path-effect
       effect="mirror_symmetry"
       start_point="274.67636,240.21573"
       end_point="274.67636,418.88419"
       center_point="274.67636,329.54996"
       id="path-effect4551-7"
       is_visible="true"
       mode="free"
       discard_orig_path="false"
       fuse_paths="false"
       oposite_fuse="false" />
    <inkscape:path-effect
       effect="mirror_symmetry"
       start_point="273.50283,331.92091"
       end_point="273.50283,477.30227"
       center_point="273.50283,404.61159"
       id="path-effect4557-0"
       is_visible="true"
       mode="free"
       discard_orig_path="false"
       fuse_paths="false"
       oposite_fuse="false" />
    <inkscape:path-effect
       effect="mirror_symmetry"
       start_point="315.71788,90.192596"
       end_point="315.71788,96.192596"
       center_point="315.71788,93.192596"
       id="path-effect4669"
       is_visible="true"
       mode="free"
       discard_orig_path="false"
       fuse_paths="false"
       oposite_fuse="false" />
    <inkscape:path-effect
       oposite_fuse="false"
       fuse_paths="false"
       discard_orig_path="false"
       mode="free"
       is_visible="true"
       id="path-effect4802"
       center_point="316.91112,93.060013"
       end_point="316.91112,96.060013"
       start_point="316.91112,90.060013"
       effect="mirror_symmetry" />
  </defs>
  <sodipodi:namedview
     id="base"
     pagecolor="#ffffff"
     bordercolor="#666666"
     borderopacity="1.0"
     inkscape:pageopacity="0.0"
     inkscape:pageshadow="2"
     inkscape:zoom="4"
     inkscape:cx="16.910432"
     inkscape:cy="-11.816284"
     inkscape:document-units="px"
     inkscape:current-layer="layer1"
     showgrid="false"
     units="px"
     showguides="true"
     inkscape:window-width="1920"
     inkscape:window-height="1017"
     inkscape:window-x="1912"
     inkscape:window-y="-8"
     inkscape:window-maximized="1" />
  <metadata
     id="metadata1576">
    <rdf:RDF>
      <cc:Work
         rdf:about="">
        <dc:format>image/svg+xml</dc:format>
        <dc:type
           rdf:resource="http://purl.org/dc/dcmitype/StillImage" />
        <dc:title />
      </cc:Work>
    </rdf:RDF>
  </metadata>
  <g
     inkscape:label="Layer 1"
     inkscape:groupmode="layer"
     id="layer1"
     transform="translate(0,-283.77082)">
    <path
       style="opacity:1;fill:#88aa00;fill-opacity:1;stroke:none;stroke-width:1.75743163;stroke-linecap:square;stroke-linejoin:miter;stroke-miterlimit:4;stroke-dasharray:none;stroke-opacity:1;paint-order:normal"
       d="M 13.412109 4.0605469 L 5.2167969 11.714844 C 5.7874668 12.339461 13.481496 21.12822 19.257812 27.722656 A 9.3535995 9.3535995 0 0 0 12.679688 36.654297 A 9.3535995 9.3535995 0 0 0 22.033203 46.007812 A 9.3535995 9.3535995 0 0 0 30.916016 39.550781 C 33.880186 40.907329 35.769946 43.427332 38.642578 45.833984 L 43.814453 45.849609 C 44.497266 45.851121 44.406052 43.588281 43.523438 43.320312 C 42.626094 43.047846 41.429816 42.631945 39.830078 42.373047 C 38.118803 40.514136 39.4847 42.002864 37.431641 39.832031 C 42.157559 37.787844 44.141382 30.764809 37.876953 25.033203 L 13.412109 4.0605469 z M 13.466797 5.3242188 L 38.798828 28.048828 C 40.089911 29.907335 39.864724 29.955512 40.054688 31.050781 L 12.304688 6.3632812 L 13.466797 5.3242188 z M 22.033203 30.347656 A 6.3072108 6.3072108 0 0 1 28.341797 36.654297 A 6.3072108 6.3072108 0 0 1 22.033203 42.960938 A 6.3072108 6.3072108 0 0 1 15.726562 36.654297 A 6.3072108 6.3072108 0 0 1 22.033203 30.347656 z "
       transform="matrix(0.26458333,0,0,0.26458333,0,283.77082)"
       id="path982" />
  </g>
</svg>
